!!! OTL: Berkowitz139
!!! Chapter: 1
!!! Section: I
!!! Page: 32
!!! Mode: 
!!! Encoder: DJB
**kern
*staff1
*I"Piano
=1-
*clefF4
*k[b-]
*d:
*M2/4
8F\L
8D\J
8F\L
8A\J
=2
8d\L
16c\L
16B-\JJ
4A\
=3
8B-\L
16A\L
16G\JJ
8A\L
16G\L
16F\JJ
=4
8E\L
8C#\J
4AA/
=5
8F\L
8D\J
8F\L
8A\J
=6
8B-\L
8G\J
8B-\L
8d\J
=7
8A\L
16G\L
16F\JJ
8E\L
8D\J
=8
8F\L
8E\J
4D\
==
*-
